X: 15062
T: Gerhard Heintzman Piano
R: reel
M: 4/4
K: Gmajor
|:D|GGBG dGBG|ABcd eeef|gaba gedB|AABA GEDE|
GGBG dGBG|ABcd eeef|gaba gedB|ADFA GGG:|
|:d|gfga bgeg|dBge dBAG|gfga bgag|eaab aaga|
bgaf gfed|efge dBAG|cedB ABge|dBAB GGG:|

